Icons_UI/backup/bcpst original/c.svg

<svg xmlns="http://www.w3.org/2000/svg" viewBox="0 0 654 693">
  <g transform="translate(-1012, -1105)">
  <g fill-rule="evenodd">
    <path fill="#269" d="M1666 1605.93c0 42.56-34.45 77.07-76.94 77.07h-500.12c-42.49 0-76.94-34.51-76.94-77.07v-379.3c0-42.56 111.39-121.63 153.88-121.63h396.73c59.51 0 103.39 44.54 103.39 103.56z"/>
    <path fill="#b4c7e7" d="M1628 1683c0 42.52-34.51 77-77.07 77h-423.86c-42.56 0-77.07-34.48-77.07-77v-461.99c0-79.29-.4-77 96.33-77h404.6c42.56 0 77.07 34.47 77.07 77z"/>
    <path fill="#dae3f3" d="M1589 1702.2c0 31.92-25.83 57.8-57.7 57.8h-461.6c-31.87 0-57.7-25.88-57.7-57.8v-462.4c0-31.92 25.83-57.8 57.7-57.8h461.6c31.87 0 57.7 25.88 57.7 57.8z"/>
    <path fill="#3b88c3" d="M1589 1721.07c0 42.48-34.46 76.93-76.97 76.93h-404.06c-42.51 0-76.97-34.45-76.97-76.93v-423.14c0-42.48 34.46-76.93 76.97-76.93h404.06c42.51 0 76.97 34.45 76.97 76.93z"/>
    <path fill="#55acee" d="M1551 1721c0 42.52-34.49 77-77.04 77h-365.92c-42.55 0-77.04-34.48-77.04-77v-385c0-42.52 34.49-77 77.04-77h372.38c42.54 0 70.58 28.03 70.58 70.55z"/>
    <path fill="#269" d="M1108 1220.5c-32.41 0-33.23-37-19.2-52.94 15.97-18.11 40.8-24.06 85.21-24.06H1204V1105h-52.2c-76.21 0-139.8 48.12-139.8 103.47V1721c0 42.52 34.39 77 76.8 77h38.4v-577.5z"/>
  </g>
  </g>
</svg>

<svg width="654" height="693" xmlns="http://www.w3.org/2000/svg" xmlns:xlink="http://www.w3.org/1999/xlink" xml:space="preserve" overflow="hidden"><defs><clipPath id="clip0"><rect x="1012" y="1105" width="654" height="693"/></clipPath></defs><g clip-path="url(#clip0)" transform="translate(-1012 -1105)"><path d="M1666 1605.93C1666 1648.49 1631.55 1683 1589.06 1683L1088.94 1683C1046.45 1683 1012 1648.49 1012 1605.93L1012 1226.63C1012 1184.07 1123.39 1105 1165.88 1105L1562.61 1105C1622.12 1105 1666 1149.54 1666 1208.56L1666 1605.93Z" fill="#226699" fill-rule="evenodd"/><path d="M1628 1683C1628 1725.52 1593.49 1760 1550.93 1760L1127.07 1760C1084.51 1760 1050 1725.52 1050 1683L1050 1221.01C1050 1141.72 1049.6 1144.01 1146.33 1144.01L1550.93 1144.01C1593.49 1144.01 1628 1178.48 1628 1221.01L1628 1683Z" fill="#B4C7E7" fill-rule="evenodd"/><path d="M1589 1702.2C1589 1734.12 1563.17 1760 1531.3 1760L1069.7 1760C1037.83 1760 1012 1734.12 1012 1702.2L1012 1239.8C1012 1207.88 1037.83 1182 1069.7 1182L1531.3 1182C1563.17 1182 1589 1207.88 1589 1239.8L1589 1702.2Z" fill="#DAE3F3" fill-rule="evenodd"/><path d="M1589 1721.07C1589 1763.55 1554.54 1798 1512.03 1798L1107.97 1798C1065.46 1798 1031 1763.55 1031 1721.07L1031 1297.93C1031 1255.45 1065.46 1221 1107.97 1221L1512.03 1221C1554.54 1221 1589 1255.45 1589 1297.93L1589 1721.07Z" fill="#3B88C3" fill-rule="evenodd"/><path d="M1551 1721C1551 1763.52 1516.51 1798 1473.96 1798L1108.04 1798C1065.49 1798 1031 1763.52 1031 1721L1031 1336C1031 1293.48 1065.49 1259 1108.04 1259L1480.42 1259C1522.96 1259 1551 1287.03 1551 1329.55L1551 1721Z" fill="#55ACEE" fill-rule="evenodd"/><path d="M1108 1220.5C1075.59 1220.5 1074.77 1183.5 1088.8 1167.56 1104.77 1149.45 1129.6 1143.5 1174.01 1143.5L1204 1143.5 1204 1105 1151.8 1105C1075.59 1105 1012 1153.12 1012 1208.47L1012 1721C1012 1763.52 1046.39 1798 1088.8 1798L1127.2 1798 1127.2 1220.5 1108 1220.5Z" fill="#226699" fill-rule="evenodd"/></g></svg>
